!!!RNB: voices? b.4 doubled accidentals check
!!!COA1: Gaspar van Weerbeke
!!!COA2: Josquin des Prez
!!!LAR: Spinacino, Francesco
!!!OTL: O Venus bant
!!!ONB: lute intabulation
!!!AGN: Song; Chanson; Intabulation
!!!SCT: Gas0507.2
!!!SCA: Gas0507.2
**kern	**kern
*part1	*part1
*staff2	*staff1
*clefF4	*clefG2
*k[b-]	*k[b-]
*M4/4	*M4/4
*omet(O)	*omet(O)
=1	=1
*	*^
4.C	4.cc	1c
8D	8b-y	.
4E	4g	.
[4F	[4a	.
=2	=2	=2
4F]	4a]	2d
4G	4bnX	.
8GL	8bL	2d
8FJ	8aJ	.
4G	4b	.
=3	=3	=3
4.A	2cc	1c
8B-y	.	.
8cL	4g	.
8B-yJ	.	.
4c	4a	.
*	*v	*v
=4	=4
8cL	4g
8dJ	.
2.e-X	4.cc
.	8dd
.	4ee
!!LO:LB:g=original
=5	=5
*	*^
4d	8ffL	2f
.	8ee	.
8B-yL	8dd	.
8AJ	8ccJ	.
2G	4.bnX	2d
.	8a	.
=6	=6	=6
4C	2cc	1c
4F	.	.
8FL	2cc	.
8GJ	.	.
4A	.	.
=7	=7	=7
2F	4.cc	2rc
.	8b-y	.
8AL	4a	2c
8B-yJ	.	.
4c	4g	.
=8	=8	=8
4F	4a	2f
4B-y	4f	.
4B-y	2ff	4f
4d	.	4f
=9	=9	=9
1B-y	2dd	4f
.	.	4d
.	8ddL	2f
.	8cc	.
.	8dd	.
.	8eeJ	.
!!LO:LB:g=original
=10	=10	=10
4f	2ff	2d
4B-y	.	.
8B-yL	2dd	[2d
8c	.	.
8d	.	.
8e-XJ	.	.
=11	=11	=11
4d	8ffL	2d]
.	8ee	.
4G	8dd	.
.	8ccJ	.
8GL	2b-y	2d
8A	.	.
8B-y	.	.
8cJ	.	.
=12	=12	=12
4B-y	4dd	2f
4BB-y	2.dd	.
8BB-yL	.	2f
8C	.	.
8D	.	.
8EJ	.	.
=13	=13	=13
4.F	2a	2c
8E	.	.
4C	4cc	2c
8CL	8ccL	.
8DJ	8b-yJ	.
=14	=14	=14
8EL	4g	2rc
8FJ	.	.
2G	4b-y	.
.	8b-yL	2g
.	8ccJ	.
4B-y	4dd	.
!!LO:LB:g=original
=15	=15	=15
2c	2.cc	8eL
.	.	8d
.	.	8e
.	.	8fJ
4c	.	2g
4c	[4ee	.
=16	=16	=16
4B-y	4ee]	1d
8B-yL	8ddL	.
8AJ	8ccJ	.
8GL	4bnX	.
8FJ	.	.
4G	8bL	.
.	8aJ	.
=17	=17	=17
4.C	2cc	1c
8D	.	.
4E	2cc	.
4F	.	.
=18	=18	=18
4C	2rb	1c
4F	.	.
8FL	2cc	.
8GJ	.	.
4A	.	.
*	*v	*v
=19	=19
8AL	2cc
8B-yJ	.
4c	.
8cL	2cc
8B-yJ	.
4A	.
!!LO:LB:g=original
=20	=20
*	*^
4G	2dd	2g
4B-y	.	.
8B-yL	2dd	2g
8AJ	.	.
4B-y	.	.
=21	=21	=21
4F	2cc	2a
4A	.	.
8fL	4cc	[2a
8eJ	.	.
4f	[4ff	.
=22	=22	=22
2.c	4ff]	2a]
.	8eeL	.
.	8ddJ	.
.	2ee	2g
4c	.	.
=23	=23	=23
2d	4.ff	1f
.	8ee	.
4A	4cc	.
4B-y	4dd	.
*	*v	*v
=24	=24
4F	4cc
4.B-y	2dd
4.c	.
.	8ccL
.	8b-yJ
!!LO:LB:g=original
=25	=25
*	*^
8dL	4a	1f
8cJ	.	.
4.B-y	2.dd	.
8c	.	.
8dL	.	.
8e-XJ	.	.
=26	=26	=26
2d	2dd	2f
4d	2dd	2f
4BB-y	.	.
=27	=27	=27
4BB-y	2dd	2f
4BB-y	.	.
8BB-yL	2dd	2f
8C	.	.
8D	.	.
8EJ	.	.
=28	=28	=28
2F	2.a	2c
4F	.	2c
4C	8ccL	.
.	8b-yJ	.
=29	=29	=29
4r	8ccL	2rc
.	8ddJ	.
4c	4ee	.
4d	4ff	2f
4B-y	[4dd	.
!!LO:PB:g=original
=30	=30	=30
2.c	4dd]	2e
.	8ccL	.
.	8bnXJ	.
.	2cc	2e
4c	.	.
=31	=31	=31
2G	2dd	2d
4G	2dd	2d
8FL	.	.
8EJ	.	.
=32	=32	=32
4d	2ff	2d
2d	.	.
.	4ff	2d
4f	8ffL	.
.	8eeJ	.
=33	=33	=33
8fL	2dd	2rc
8e	.	.
8d	.	.
8cJ	.	.
4B-y	4dd	2d
8AL	8ccL	.
8GJ	8b-yJ	.
=34	=34	=34
4F	4a	2f
8FL	8aL	.
8GJ	8b-yJ	.
4A	4cc	2f
4B-y	4dd	.
!!LO:LB:g=original
=35	=35	=35
8B-yL	8ddL	1d
8cJ	8eeJ	.
4d	4ff	.
8dL	8ffL	.
8c	8ee	.
8B-y	8dd	.
8AJ	8ccJ	.
=36	=36	=36
8GL	2bnX	2g
8F	.	.
8E	.	.
8DJ	.	.
8EL	4b	2g
8C	.	.
8c	[4cc	.
8dJ	.	.
=37	=37	=37
8eL	4cc]	2rc
8cJ	.	.
4g	4bnX	.
8CL	2cc	2c
8D	.	.
8E	.	.
8CJ	.	.
=38	=38	=38
4G	4bnX	2d
4F	2cc	.
2G	.	2d
.	4b	.
=39	=39	=39
1C;l	1cc;l	1c;l
*	*v	*v
==	==
*-	*-
!!!system-decoration: [*]
!!!RDF**kern: j = editorial accidental, optional, paren up
!!!RDF**kern: i = editorial accidental
!!!RDF**kern: l = terminal breve
!!!PTL: Gaspar van Weerbeke: Collected Works. V. Settings of Liturgical Texts, Songs, and Instrumental Works
!!!ISBN: 978-1-59551-544-5
!!!PPR: American Institute of Musicology
!!!PC#: Corpus Mensurabilis Musicae 106/V
!!!PDT: 2020
!!!PED: Kolb, Paul
!!!YEC: Copyright 2018, Kolb, Paul
!!!YEM: CC-BY-NC 4.0 (https://creativecommons.org/licenses/by-nc/4.0/legalcode)
!!!EED: Zybina, Karina
!!!EEV: 2021/08/26
!!!muse2ps: C^@{COA1}?^i2I150v90,90,120c120z18l2770t130
